_includes/icons/ios-add-new.svg

<svg fill="#666" height="50" viewBox="0 0 50 50" width="50" xmlns="http://www.w3.org/2000/svg"><path d="m9 4c-2.7454545 0-5 2.2545455-5 5v32c0 2.745455 2.2545455 5 5 5h32c2.745455 0 5-2.254545 5-5v-32c0-2.7454545-2.254545-5-5-5zm0 2h32c1.654545 0 3 1.3454545 3 3v32c0 1.654545-1.345455 3-3 3h-32c-1.6545455 0-3-1.345455-3-3v-32c0-1.6545455 1.3454545-3 3-3zm15 7v11h-11v2h11v11h2v-11h11v-2h-11v-11z"/></svg>

<svg xmlns="http://www.w3.org/2000/svg" viewBox="0 0 50 50" width="50" height="50" fill="#666"><path style="line-height:normal;text-indent:0;text-align:start;text-decoration-line:none;text-decoration-style:solid;text-decoration-color:#000;text-transform:none;block-progression:tb;isolation:auto;mix-blend-mode:normal" d="M 9 4 C 6.2545455 4 4 6.2545455 4 9 L 4 41 C 4 43.745455 6.2545455 46 9 46 L 41 46 C 43.745455 46 46 43.745455 46 41 L 46 9 C 46 6.2545455 43.745455 4 41 4 L 9 4 z M 9 6 L 41 6 C 42.654545 6 44 7.3454545 44 9 L 44 41 C 44 42.654545 42.654545 44 41 44 L 9 44 C 7.3454545 44 6 42.654545 6 41 L 6 9 C 6 7.3454545 7.3454545 6 9 6 z M 24 13 L 24 24 L 13 24 L 13 26 L 24 26 L 24 37 L 26 37 L 26 26 L 37 26 L 37 24 L 26 24 L 26 13 L 24 13 z"/></svg>
